src/svg/16/more_vertical_16.svg

<svg xmlns="http://www.w3.org/2000/svg" width="8" height="16" fill="none" viewBox="0 0 8 16"><path fill="currentColor" d="M4 4.5c.825 0 1.5-.675 1.5-1.5S4.825 1.5 4 1.5 2.5 2.175 2.5 3 3.175 4.5 4 4.5Zm0 2c-.825 0-1.5.675-1.5 1.5S3.175 9.5 4 9.5 5.5 8.825 5.5 8 4.825 6.5 4 6.5Zm0 5c-.825 0-1.5.675-1.5 1.5s.675 1.5 1.5 1.5 1.5-.675 1.5-1.5-.675-1.5-1.5-1.5Z"/></svg>

<?xml version="1.0" encoding="UTF-8"?>
<svg width="8px" height="16px" viewBox="0 0 8 16" version="1.1" xmlns="http://www.w3.org/2000/svg" xmlns:xlink="http://www.w3.org/1999/xlink">
    <!-- Generator: Sketch 50.2 (55047) - http://www.bohemiancoding.com/sketch -->
    <title>more_vertical_16</title>
    <desc>Created with Sketch.</desc>
    <defs></defs>
    <g id="Page-2" stroke="none" stroke-width="1" fill="none" fill-rule="evenodd">
        <g id="more_vertical_16">
            <rect id="Body" x="0" y="0" width="8" height="16"></rect>
            <path d="M4,4.5 C4.825,4.5 5.5,3.825 5.5,3 C5.5,2.175 4.825,1.5 4,1.5 C3.175,1.5 2.5,2.175 2.5,3 C2.5,3.825 3.175,4.5 4,4.5 L4,4.5 Z M4,6.5 C3.175,6.5 2.5,7.175 2.5,8 C2.5,8.825 3.175,9.5 4,9.5 C4.825,9.5 5.5,8.825 5.5,8 C5.5,7.175 4.825,6.5 4,6.5 L4,6.5 Z M4,11.5 C3.175,11.5 2.5,12.175 2.5,13 C2.5,13.825 3.175,14.5 4,14.5 C4.825,14.5 5.5,13.825 5.5,13 C5.5,12.175 4.825,11.5 4,11.5 L4,11.5 Z" id="Mask" fill="currentColor"></path>
        </g>
    </g>
</svg>
